X: 1
T:Tideswell Processional
M:2/2
L:1/8
R:Hornpipe
K:F
A>cc>f f>cc>c|f>dc>B A2F2|A>cc>f f>cc>f|f>dc>B A2F2|
B>c(3dcB A>cc2|B>c(3dcB A2F2|B>c(3dcB A>cc2|d>fe>g f4||
